svgs/light/file-medical.svg

<svg xmlns="http://www.w3.org/2000/svg" viewBox="0 0 384 512"><!--! Font Awesome Pro 6.6.0 by @fontawesome - https://fontawesome.com License - https://fontawesome.com/license (Commercial License) Copyright 2024 Fonticons, Inc. --><path d="M320 480L64 480c-17.7 0-32-14.3-32-32L32 64c0-17.7 14.3-32 32-32l128 0 0 112c0 26.5 21.5 48 48 48l112 0 0 256c0 17.7-14.3 32-32 32zM240 160c-8.8 0-16-7.2-16-16l0-111.5c2.8 .7 5.4 2.1 7.4 4.2L347.3 152.6c2.1 2.1 3.5 4.6 4.2 7.4L240 160zM64 0C28.7 0 0 28.7 0 64L0 448c0 35.3 28.7 64 64 64l256 0c35.3 0 64-28.7 64-64l0-284.1c0-12.7-5.1-24.9-14.1-33.9L254.1 14.1c-9-9-21.2-14.1-33.9-14.1L64 0zM176 224c-17.7 0-32 14.3-32 32l0 32-32 0c-17.7 0-32 14.3-32 32l0 32c0 17.7 14.3 32 32 32l32 0 0 32c0 17.7 14.3 32 32 32l32 0c17.7 0 32-14.3 32-32l0-32 32 0c17.7 0 32-14.3 32-32l0-32c0-17.7-14.3-32-32-32l-32 0 0-32c0-17.7-14.3-32-32-32l-32 0zm0 80l0-48 32 0 0 48c0 8.8 7.2 16 16 16l48 0 0 32-48 0c-8.8 0-16 7.2-16 16l0 48-32 0 0-48c0-8.8-7.2-16-16-16l-48 0 0-32 48 0c4.2 0 8.3-1.7 11.3-4.7s4.7-7.1 4.7-11.3z"/></svg>

<svg xmlns="http://www.w3.org/2000/svg" viewBox="0 0 384 512"><!--! Font Awesome Pro 6.4.0 by @fontawesome - https://fontawesome.com License - https://fontawesome.com/license (Commercial License) Copyright 2023 Fonticons, Inc. --><path d="M320 480H64c-17.7 0-32-14.3-32-32V64c0-17.7 14.3-32 32-32H192V144c0 26.5 21.5 48 48 48H352V448c0 17.7-14.3 32-32 32zM240 160c-8.8 0-16-7.2-16-16V32.5c2.8 .7 5.4 2.1 7.4 4.2L347.3 152.6c2.1 2.1 3.5 4.6 4.2 7.4H240zM64 0C28.7 0 0 28.7 0 64V448c0 35.3 28.7 64 64 64H320c35.3 0 64-28.7 64-64V163.9c0-12.7-5.1-24.9-14.1-33.9L254.1 14.1c-9-9-21.2-14.1-33.9-14.1H64zM176 224c-17.7 0-32 14.3-32 32v32H112c-17.7 0-32 14.3-32 32v32c0 17.7 14.3 32 32 32h32v32c0 17.7 14.3 32 32 32h32c17.7 0 32-14.3 32-32V384h32c17.7 0 32-14.3 32-32V320c0-17.7-14.3-32-32-32H240V256c0-17.7-14.3-32-32-32H176zm0 80V256h32v48c0 8.8 7.2 16 16 16h48v32H224c-8.8 0-16 7.2-16 16v48H176V368c0-8.8-7.2-16-16-16H112V320h48c4.2 0 8.3-1.7 11.3-4.7s4.7-7.1 4.7-11.3z"/></svg>
